svg/road_variant.svg

<svg xmlns="http://www.w3.org/2000/svg" viewBox="0 0 24 24"><path d="M18.1 4.8c-.1-.5-.5-.8-1-.8H13l.2 3h-2.4l.2-3H6.8c-.5 0-.9.4-1 .8l-2.7 14c-.1.6.4 1.2 1 1.2H10l.3-5h3.4l.3 5h5.8c.6 0 1.1-.6 1-1.2zM10.4 13l.2-4h2.6l.2 4z"/></svg>

<?xml version="1.0" encoding="UTF-8"?><!DOCTYPE svg PUBLIC "-//W3C//DTD SVG 1.1//EN" "http://www.w3.org/Graphics/SVG/1.1/DTD/svg11.dtd"><svg xmlns="http://www.w3.org/2000/svg" xmlns:xlink="http://www.w3.org/1999/xlink" version="1.1" id="mdi-road-variant" width="24" height="24" viewBox="0 0 24 24"><path d="M18.1,4.8C18,4.3 17.6,4 17.1,4H13L13.2,7H10.8L11,4H6.8C6.3,4 5.9,4.4 5.8,4.8L3.1,18.8C3,19.4 3.5,20 4.1,20H10L10.3,15H13.7L14,20H19.8C20.4,20 20.9,19.4 20.8,18.8L18.1,4.8M10.4,13L10.6,9H13.2L13.4,13H10.4Z" /></svg>
